X:1
T:There’s a Voice That Calls Me On
T:There’s a Voice That Calls Me On
T:C. Mason Jones
T:C. Mason Jones, 1904
T:Public Domain Courtesy of the Cyber Hymnal™
T:Public Domain Courtesy of the Cyber Hymnal™
C:C. Mason Jones
Z:Public Domain
Z:Courtesy of the Cyber Hymnal™
%%score ( 1 2 ) ( 3 4 )
L:1/8
Q:1/4=97
M:4/4
K:F
V:1 treble 
V:2 treble 
V:3 bass 
V:4 bass 
V:1
 (FG) | [FA][FA][FA][FA] [Fc]2 [EB][FA] | [EG]6 ([EG][FA]) | [EB][EB][EB][EB] [Ed]2 [Fc][EB] | %4
w: 1.~There’s~a *|voice that calls me on, I must|go, I *|can- not tar- ry long here be-|
w: 2.~I *|ne- ver will de- part from that|voice, It *|cheers my faint- ing heart, I re-|
w: 3.~That *|voice still calls me on, I must|go; With *|Je- sus I’ll be soon, this I|
 [FA]6 ([FA][FB]) | [Fc][Ec][Fc][Ec] [Fc]2 [EB][FA] | [Fd][Fd][Fd][Fd] [Ff]2 [Fe][Fd] | %7
w: low; ’Tis~a *|voice I long to hear, ’Tis a|voice that bids me cheer, And it|
w: joice; It *|tells of love di- vine, Oh, I’m|glad that love is mine, And it|
w: know; Halle- *|lu- jah to His name, Free from|sin and death I am, I am|
 [Fc][EB]F[GB] [FA]2 [EG]2 | F6 z2 ||"^Refrain" [Fc]2 [FA]2 [Fc]4 | [Fd]2 [FB]2 [Fd]4 | %11
w: calls me to my heav’n- ly|home.|||
w: calls me to my heav’n- ly|home.|Home sweet home,|home a- bove,|
w: long- ing for my heav’n- ly|home.|||
 [Fc]2 [Fc][Fc] [FA]2 F2 | [EG]6 [FA][FB] | [Fc][Ec][Fc][Ec] [Fc]2 [EB][FA] | %14
w: |||
w: Home of the kin- dred|dear; I would|fly on wings of love, To that|
w: |||
 [Fd][Fd][Fd][Fd] !fermata![^Gf]2 [Ge][Gd] | [Ac][FA] z2 [Ec]<!fermata![CE] [CG]2 | [CF]6 |] %17
w: |||
w: hap- py home a- bove, For my|Sav- ior beck- ons me|there.|
w: |||
V:2
 C2 | x8 | x8 | x8 | x8 | x8 | x8 | x2 F x5 | F6 x2 || x8 | x8 | x6 F2 | x8 | x8 | x8 | x8 | x6 |] %17
V:3
 ([F,A,][F,A,]) | [F,C][F,C][F,C][F,C] [A,C]2 [G,C][F,C] | %2
 ([C,C]2 [C,B,][C,A,] [C,G,]2) [C,B,][C,A,] | [C,G,][C,G,][C,G,][C,G,] [C,B,]2 [C,A,][C,G,] | %4
 F,2 ([F,A,][F,D] [F,C]2) F,[F,G,] | [F,A,][C,G,][F,A,][G,B,] [A,C]2 [G,C][F,C] | %6
 [B,,B,][B,,B,][B,,B,][B,,B,] [B,,D]2 [B,,C][B,,B,] | [C,A,][C,C][D,A,][B,,D] [C,C]2 [C,B,]2 | %8
 [F,A,]6 z2 || [F,A,]2 [F,C]2 [F,A,]4 | [B,,B,]2 [B,,D]2 [B,,B,]4 | %11
 [F,A,]2 [F,A,][F,A,] [F,C]2 [A,,C]2 | [C,C]6 F,[F,G,] | %13
 [F,A,][C,G,][F,A,][G,B,] [A,C]2 [G,C][F,C] | B,_B,_B,_B, !fermata![=B,D]2 [B,E][B,F] | %15
 [CF]C z2 [C,B,]<!fermata![C,B,] [C,B,]2 | [F,A,]6 |] %17
V:4
 x2 | x8 | x8 | x8 | F,2 x2 F, x3 | x8 | x8 | x8 | x8 || x8 | x8 | x8 | x6 F, x | x8 | %14
 =B,=B,=B,=B, x4 | x C x6 | x6 |] %17

